X:36
T:Spotted Pony
G:Key: D
M:C|
Z:abc-transcription Josh Larios <hades@elsewhere.org>, 2017.02.14
Z:abc-copyright This transcription is licensed under a Creative Commons Attribution-ShareAlike 4.0 International License.
N:Most people play this in the opposite order, with the A and B parts swapped.
N:That is how it appears on older recordings where the tune is called "Snowshoes".
K:D
[P:A]y0|:"D"f2a2f4 | "G"ef ed B4 | "D"AB de fe de | "D"f2a2"A"e4 |
|"D"f2a2f4 | "G"ef ed B4 | "D"AB de fe de | "A"f2e2"D"d4 :|
[P:B]y0|:"D"D2DD "A"E2EE | "D"F2 FF "G"G2GG | "D"AB de fe de | "A"f2a2e4 |
|"D"D2DD "A"E2EE | "D"F2 FF "G"G2GG | "D"AB de fe de | "A"f2e2"D"d4 :|

